svg/ups.svg

<svg width="24" height="24" viewBox="0 0 24 24"  xmlns="http://www.w3.org/2000/svg">
<path d="M12.0867 12.679H12.3476C12.5626 12.679 12.7329 12.6235 12.8586 12.5126C12.9866 12.4018 13.0506 12.2487 13.0506 12.0536C13.0506 11.7253 12.8525 11.5612 12.4563 11.5612H12.0867V12.679Z" />
<path fill-rule="evenodd" clip-rule="evenodd" d="M18 4.8C18 4.51997 18 4.37996 17.9455 4.273C17.8976 4.17892 17.8211 4.10243 17.727 4.0545C17.62 4 17.48 4 17.2 4H14.8C14.52 4 14.38 4 14.273 4.0545C14.1789 4.10243 14.1024 4.17892 14.0545 4.273C14 4.37996 14 4.51997 14 4.8V6H10V4.8C10 4.51997 10 4.37996 9.9455 4.273C9.89757 4.17892 9.82108 4.10243 9.727 4.0545C9.62004 4 9.48003 4 9.2 4H6.8C6.51997 4 6.37996 4 6.273 4.0545C6.17892 4.10243 6.10243 4.17892 6.0545 4.273C6 4.37996 6 4.51997 6 4.8V6H4C2.89 6 2 6.89 2 8V18C2 19.11 2.89 20 4 20H20C21.11 20 22 19.11 22 18L21.99 8C21.99 6.89 21.11 6 20 6H18V4.8ZM9.53301 10.5V13.4973C9.53301 14.1338 9.33613 14.6273 8.94238 14.9777C8.55104 15.3259 7.98577 15.5 7.24657 15.5C6.52429 15.5 5.96868 15.3303 5.57976 14.991C5.19325 14.6517 5 14.1638 5 13.5273V10.5H6.43853V13.4242C6.43853 13.7679 6.50859 14.0174 6.6487 14.1727C6.7888 14.3279 6.99534 14.4055 7.26832 14.4055C7.56061 14.4055 7.77198 14.329 7.90243 14.176C8.03529 14.0207 8.10172 13.7679 8.10172 13.4175V10.5H9.53301ZM14.5 12.0469C14.5 12.5903 14.3249 13.0105 13.9746 13.3077C13.6267 13.6027 13.1315 13.7502 12.489 13.7502H12.0867V15.5H10.6555V10.5H12.489C13.1581 10.5 13.6606 10.6342 13.9963 10.9025C14.3321 11.1709 14.5 11.5523 14.5 12.0469ZM18.75 14.7615C18.9167 14.5264 19 14.258 19 13.9564C19 13.6282 18.9106 13.3565 18.7319 13.1414C18.5555 12.924 18.2391 12.7211 17.7825 12.5326C17.3066 12.333 17.0143 12.1955 16.9056 12.1201C16.7993 12.0447 16.7462 11.9593 16.7462 11.8639C16.7462 11.7752 16.7885 11.7009 16.873 11.6411C16.9576 11.5812 17.0928 11.5512 17.2788 11.5512C17.6388 11.5512 18.0663 11.6555 18.5616 11.8639L19 10.8493C18.4299 10.6164 17.8707 10.5 17.3223 10.5C16.7015 10.5 16.2135 10.6253 15.8584 10.8759C15.5033 11.1265 15.3258 11.4758 15.3258 11.9238C15.3258 12.1633 15.3668 12.3707 15.449 12.5459C15.5335 12.7211 15.6615 12.8764 15.8331 13.0116C16.007 13.1469 16.2667 13.2866 16.6121 13.4308C16.9938 13.5883 17.2281 13.6925 17.3151 13.7435C17.4045 13.7945 17.4685 13.8455 17.5071 13.8965C17.5482 13.9453 17.5687 14.003 17.5687 14.0695C17.5687 14.176 17.5192 14.2636 17.4202 14.3323C17.3211 14.3989 17.1653 14.4321 16.9527 14.4321C16.7063 14.4321 16.4358 14.3967 16.1411 14.3257C15.8463 14.2525 15.5625 14.1516 15.2895 14.023V15.1939C15.548 15.3071 15.7968 15.3869 16.036 15.4335C16.2751 15.4778 16.571 15.5 16.9237 15.5C17.3465 15.5 17.7149 15.4357 18.0289 15.3071C18.3429 15.1762 18.5833 14.9943 18.75 14.7615Z" />
</svg>

<svg width="24" height="24" viewBox="0 0 24 24" xmlns="http://www.w3.org/2000/svg"><path d="M12.087 12.679h.26c.216 0 .386-.056.512-.166a.575.575 0 0 0 .192-.46c0-.328-.199-.492-.595-.492h-.37v1.118z"/><path fill-rule="evenodd" clip-rule="evenodd" d="M18 4.8c0-.28 0-.42-.055-.527a.5.5 0 0 0-.218-.218C17.62 4 17.48 4 17.2 4h-2.4c-.28 0-.42 0-.527.054a.5.5 0 0 0-.218.219C14 4.38 14 4.52 14 4.8V6h-4V4.8c0-.28 0-.42-.055-.527a.5.5 0 0 0-.218-.218C9.62 4 9.48 4 9.2 4H6.8c-.28 0-.42 0-.527.054a.5.5 0 0 0-.218.219C6 4.38 6 4.52 6 4.8V6H4c-1.11 0-2 .89-2 2v10c0 1.11.89 2 2 2h16c1.11 0 2-.89 2-2l-.01-10c0-1.11-.88-2-1.99-2h-2V4.8zm-8.467 5.7v2.997c0 .637-.197 1.13-.59 1.48-.392.349-.957.523-1.696.523-.723 0-1.278-.17-1.667-.509-.387-.34-.58-.827-.58-1.464V10.5h1.439v2.924c0 .344.07.593.21.749.14.155.346.232.62.232.292 0 .503-.076.633-.229.133-.155.2-.408.2-.758V10.5h1.431zm4.967 1.547c0 .543-.175.963-.525 1.26-.348.296-.843.443-1.486.443h-.402v1.75h-1.431v-5h1.833c.67 0 1.172.134 1.507.402.336.269.504.65.504 1.145zm4.25 2.714c.167-.235.25-.503.25-.805 0-.328-.09-.6-.268-.815-.177-.217-.493-.42-.95-.608-.475-.2-.768-.338-.876-.413-.107-.075-.16-.16-.16-.256 0-.089.043-.163.127-.223.085-.06.22-.09.406-.09.36 0 .787.104 1.283.313L19 10.849a4.416 4.416 0 0 0-1.678-.349c-.62 0-1.108.125-1.464.376-.355.25-.532.6-.532 1.048 0 .24.04.447.123.622.085.175.213.33.384.466.174.135.434.275.78.419.38.157.615.262.702.313.09.05.153.101.192.152a.26.26 0 0 1 .062.173c0 .107-.05.195-.149.263-.099.067-.255.1-.467.1-.247 0-.517-.035-.812-.106a4.587 4.587 0 0 1-.851-.303v1.17c.258.114.507.194.746.24.24.045.535.067.888.067.422 0 .79-.064 1.105-.193a1.63 1.63 0 0 0 .721-.546z"/></svg>
